packages/icons/src/SVG/volume-up.svg

<svg width="12" height="12" viewBox="0 0 12 12" fill="none" xmlns="http://www.w3.org/2000/svg">
<path d="M3 4H0V8H3L6 11V1L3 4Z" fill="#4C505B"/>
<path d="M7 8.82931C8.16519 8.41747 9 7.30623 9 6.00001C9 4.69379 8.16519 3.58256 7 3.17072V8.82931Z" fill="#4C505B"/>
<path fill-rule="evenodd" clip-rule="evenodd" d="M7 10.3885C9.00399 9.93377 10.5 8.14159 10.5 6C10.5 3.85842 9.00399 2.06624 7 1.61151V0.082962C9.83771 0.55904 12 3.02701 12 6C12 8.973 9.83771 11.441 7 11.917V10.3885Z" fill="#4C505B"/>
</svg>

<!-- Generated by IcoMoon.io -->
<svg version="1.1" xmlns="http://www.w3.org/2000/svg" width="12" height="12" viewBox="0 0 12 12">
<title>volume-up</title>
<path fill="#4c505b" d="M3 4h-3v4h3l3 3v-10l-3 3z"></path>
<path fill="#4c505b" d="M12 6c0-3.015-2.162-5.517-5-6v1.55c2.004 0.461 3.5 2.278 3.5 4.45s-1.496 3.989-3.5 4.45v1.55c2.838-0.483 5-2.985 5-6z"></path>
<path fill="#4c505b" d="M7 8.829c1.165-0.412 2-1.523 2-2.829s-0.835-2.417-2-2.829v5.659z"></path>
</svg>
